img/cab-section__02.svg

<svg width="38" height="36" viewBox="0 0 38 36" fill="none" xmlns="http://www.w3.org/2000/svg">
<path d="M16.5994 30.8771C16.4673 30.7295 16.2848 30.6434 16.0867 30.6329C13.2577 30.4875 10.4213 30.1282 7.65543 29.5649L7.58344 29.5508C7.53743 29.542 7.48985 29.5375 7.44317 29.5375C7.08766 29.5375 6.78196 29.7906 6.71449 30.1394C6.67738 30.3346 6.71746 30.532 6.82879 30.696C6.94012 30.86 7.10852 30.9714 7.30297 31.0085L7.35938 31.0195C10.1979 31.5977 13.1085 31.9658 16.011 32.1151C16.0228 32.1158 16.0362 32.1166 16.0496 32.1166C16.4443 32.1166 16.7693 31.8071 16.7902 31.4122C16.7998 31.2141 16.7323 31.0241 16.5994 30.8771Z" fill="white"/>
<path d="M31.2861 30.1409C31.2191 29.7914 30.9126 29.5375 30.558 29.5375C30.5111 29.5375 30.4637 29.5421 30.4177 29.5509L30.3435 29.565C27.588 30.1261 24.762 30.4846 21.945 30.6315C21.7468 30.6419 21.5643 30.7288 21.4322 30.8757C21.2993 31.0226 21.2318 31.2134 21.2423 31.4108C21.263 31.8057 21.5881 32.1143 21.9829 32.1143C21.997 32.1143 22.0096 32.1143 22.0222 32.1136C24.9135 31.9629 27.8137 31.5948 30.6412 31.0196L30.6961 31.0086C30.8913 30.9714 31.0597 30.8609 31.1711 30.6968C31.2824 30.5328 31.3232 30.3354 31.2861 30.1409Z" fill="white"/>
<path d="M19.0164 30.708H19.0075C18.813 30.7101 18.6298 30.7873 18.4916 30.9254C18.3514 31.0657 18.2743 31.252 18.2743 31.4502C18.2743 31.8591 18.6075 32.1923 19.0164 32.1923C19.4252 32.1923 19.7585 31.8591 19.7585 31.4502C19.7585 31.0405 19.426 30.708 19.0164 30.708Z" fill="white"/>
<path d="M28.6489 14.1982C28.2392 14.1982 27.9068 14.5315 27.9068 14.9404C27.9068 15.3493 28.2392 15.6826 28.6489 15.6826C29.0578 15.6826 29.391 15.3493 29.391 14.9404C29.391 14.5315 29.0578 14.1982 28.6489 14.1982Z" fill="white"/>
<path d="M25.6773 14.1982H9.35076C8.94189 14.1982 8.60865 14.5315 8.60865 14.9404C8.60865 15.3493 8.94189 15.6826 9.35076 15.6826H25.6773C26.0862 15.6826 26.4194 15.3493 26.4194 14.9404C26.4194 14.5315 26.0862 14.1982 25.6773 14.1982Z" fill="white"/>
<path d="M37.5139 26.9538C37.1824 26.2079 36.8356 25.4532 36.5004 24.7234C35.0165 21.4929 33.4819 18.1524 32.9044 14.7693C32.5765 12.9551 31.1958 11.5816 29.5011 11.2885C29.1794 9.56765 27.6672 8.26073 25.8546 8.26073H21.2263V6.6824C22.5051 6.35197 23.4526 5.18837 23.4526 3.80761C23.4526 2.17065 22.1209 0.838867 20.4842 0.838867C19.9435 0.838867 19.4366 0.984855 18.9995 1.23853C18.5627 0.984929 18.0561 0.838867 17.5156 0.838867C15.8788 0.838867 14.5472 2.17065 14.5472 3.80761C14.5472 5.18837 15.4947 6.35197 16.7735 6.6824V8.26073H12.1453C10.3327 8.26073 8.82049 9.56757 8.49883 11.2884C6.80434 11.5814 5.42328 12.9557 5.09435 14.7765C4.51797 18.1527 2.98335 21.4934 1.4992 24.7241C1.1641 25.4537 0.8175 26.2081 0.486039 26.9537C-0.141924 28.3661 -0.161518 29.6423 0.428 30.7466C1.48242 32.7221 4.18517 33.5689 6.27012 33.9315C10.4506 34.7475 14.7334 35.1613 19 35.1613C23.2666 35.1613 27.5493 34.7476 31.7297 33.9315C33.8146 33.5691 36.5175 32.7223 37.572 30.7468C38.1615 29.6424 38.1419 28.3662 37.5139 26.9538ZM20.4842 2.32324C21.3027 2.32324 21.9685 2.98913 21.9685 3.80761C21.9685 4.62609 21.3027 5.29198 20.4842 5.29198C19.6658 5.29198 19 4.62609 19 3.80761C19 2.98913 19.6658 2.32324 20.4842 2.32324ZM18.2579 6.68158C18.521 6.61345 18.7702 6.51043 18.9999 6.37713C19.2297 6.51051 19.4787 6.61434 19.7421 6.6824V8.26073H18.2579V6.68158ZM16.0316 3.80761C16.0316 2.98913 16.6974 2.32324 17.5158 2.32324C17.6443 2.32324 17.7686 2.34038 17.8873 2.37156C17.6509 2.79742 17.5158 3.28697 17.5158 3.80761C17.5158 4.32833 17.6507 4.8181 17.8871 5.24396C17.7683 5.27469 17.644 5.29198 17.5158 5.29198C16.6974 5.29198 16.0316 4.62609 16.0316 3.80761ZM12.1453 9.7451H25.8546C26.8221 9.7451 27.647 10.3656 27.9533 11.2295H10.0466C10.353 10.3656 11.1779 9.7451 12.1453 9.7451ZM36.2627 30.0478C35.4178 31.6304 32.6286 32.2692 31.4685 32.4704C31.4634 32.4713 31.4582 32.4722 31.4531 32.4732C27.3638 33.2719 23.1739 33.6769 19 33.6769C14.8261 33.6769 10.6363 33.2719 6.54695 32.4731C6.54183 32.4721 6.53664 32.4712 6.53152 32.4703C5.37148 32.2691 2.58212 31.6302 1.73737 30.0476C1.36932 29.358 1.4036 28.5433 1.84231 27.5568C2.17013 26.8194 2.51473 26.0692 2.84797 25.3438C4.37213 22.0258 5.94816 18.5949 6.55616 15.0333C6.76434 13.8806 7.73119 12.7138 9.17682 12.7138H28.8238C30.2687 12.7138 31.2355 13.8806 31.4425 15.0261C32.0517 18.5946 33.6276 22.0253 35.1516 25.343C35.485 26.0687 35.8298 26.8192 36.1576 27.5568C36.5964 28.5434 36.6306 29.3583 36.2627 30.0478Z" fill="white"/>
</svg>

<svg width="38" height="36" fill="none" xmlns="http://www.w3.org/2000/svg"><path d="M16.6 30.877a.735.735 0 00-.513-.244 57.06 57.06 0 01-8.432-1.068l-.072-.014a.743.743 0 00-.28 1.458l.056.01a58.43 58.43 0 008.652 1.096l.039.002a.742.742 0 00.55-1.24zm14.686-.737a.743.743 0 00-.868-.59l-.075.015c-2.755.561-5.581.92-8.398 1.066a.737.737 0 00-.513.245.741.741 0 00.55 1.239l.04-.001a58.71 58.71 0 008.62-1.094l.054-.011a.737.737 0 00.59-.868zm-12.27.568h-.008a.737.737 0 00-.516.217.743.743 0 101.267.525.742.742 0 00-.743-.742zm9.633-16.51a.743.743 0 10.001 1.486.743.743 0 00-.001-1.486zm-2.972 0H9.351a.743.743 0 000 1.485h16.326a.743.743 0 000-1.485z" fill="#fff"/><path d="M37.514 26.954c-.332-.746-.678-1.5-1.014-2.23-1.483-3.231-3.018-6.572-3.596-9.955-.328-1.814-1.708-3.187-3.403-3.48a3.716 3.716 0 00-3.646-3.028h-4.629V6.682a2.974 2.974 0 002.227-2.874 2.972 2.972 0 00-2.969-2.97c-.54 0-1.047.147-1.485.4a2.946 2.946 0 00-1.483-.4 2.972 2.972 0 00-2.969 2.97c0 1.38.948 2.544 2.226 2.874v1.579h-4.628A3.716 3.716 0 008.5 11.288c-1.695.293-3.076 1.668-3.405 3.489-.576 3.376-2.11 6.716-3.595 9.947-.335.73-.682 1.484-1.013 2.23-.628 1.412-.648 2.688-.058 3.793 1.054 1.975 3.757 2.822 5.842 3.184a66.516 66.516 0 0025.46 0c2.085-.362 4.787-1.209 5.842-3.184.59-1.105.57-2.38-.058-3.793zm-17.03-24.63a1.485 1.485 0 010 2.968A1.486 1.486 0 0119 3.808c0-.819.666-1.485 1.484-1.485zm-2.226 4.358c.263-.069.512-.172.742-.305.23.134.479.237.742.305v1.579h-1.484V6.68zm-2.226-2.874a1.486 1.486 0 011.855-1.436 2.95 2.95 0 00-.371 1.436c0 .52.135 1.01.371 1.436a1.48 1.48 0 01-1.855-1.436zm-3.887 5.937h13.71c.967 0 1.792.62 2.098 1.485H10.047a2.23 2.23 0 012.098-1.485zm24.118 20.303c-.845 1.582-3.634 2.221-4.794 2.422l-.016.003A65.116 65.116 0 0119 33.677c-4.174 0-8.364-.405-12.453-1.204l-.015-.003c-1.16-.2-3.95-.84-4.795-2.422-.368-.69-.333-1.505.105-2.491.328-.738.673-1.488 1.006-2.213 1.524-3.318 3.1-6.75 3.708-10.31.208-1.153 1.175-2.32 2.62-2.32h19.648c1.445 0 2.411 1.167 2.618 2.312.61 3.569 2.186 7 3.71 10.317.333.726.678 1.476 1.006 2.214.438.986.473 1.801.105 2.49z" fill="#fff"/></svg>
